assets/icons/looker.svg

<svg width="24" height="24" viewBox="0 0 24 24" fill="none" xmlns="http://www.w3.org/2000/svg">
<g clip-path="url(#clip0_142_64)">
<path d="M11.9474 0C10.7876 0.0021 9.84924 0.944 9.85144 2.1038C9.85219 2.51912 9.97608 2.92489 10.2074 3.2698L11.1024 2.3739C11.0403 2.18508 11.0437 1.98084 11.1119 1.79415C11.1802 1.60747 11.3093 1.44923 11.4786 1.34499C11.6478 1.24075 11.8473 1.19659 12.0447 1.21964C12.2421 1.24269 12.426 1.33161 12.5667 1.47204C12.7074 1.61247 12.7966 1.79621 12.82 1.9936C12.8434 2.19099 12.7996 2.3905 12.6957 2.55993C12.5917 2.72936 12.4337 2.85882 12.2472 2.9274C12.0606 2.99598 11.8564 2.99968 11.6674 2.9379L10.7724 3.8329C11.7317 4.4807 13.0345 4.2282 13.6824 3.2689C14.3302 2.3096 14.0777 1.0069 13.1184 0.3589C12.7725 0.125349 12.3648 0.000379027 11.9474 0ZM11.1124 6.1128C11.1139 5.40427 10.8847 4.71453 10.4594 4.1478L9.29544 5.3098C9.47231 5.63314 9.53703 6.00598 9.47949 6.37002C9.42196 6.73406 9.2454 7.06876 8.97744 7.3218L9.60944 8.8667C10.07 8.56965 10.4488 8.16199 10.7113 7.68094C10.9739 7.19988 11.1118 6.66083 11.1124 6.1128ZM7.86254 7.7788H7.83254C6.91084 7.7797 6.16284 7.0333 6.16184 6.1115C6.16084 5.1898 6.90724 4.4418 7.82904 4.4408C8.15585 4.44046 8.47557 4.53608 8.74854 4.7158L9.90054 3.5638C8.49364 2.4228 6.42814 2.6381 5.28704 4.0449C4.14594 5.4517 4.36134 7.5172 5.76804 8.6584C6.1451 8.96423 6.58535 9.18254 7.05702 9.29757C7.52869 9.41261 8.02002 9.4215 8.49554 9.3236L7.86254 7.7788ZM11.9904 9.1147C11.2624 9.1147 10.5384 9.2207 9.84044 9.4297L10.7624 11.6816C13.4496 10.9997 16.1808 12.6254 16.8626 15.3126C17.5444 17.9999 15.9187 20.731 13.2315 21.4128C10.5443 22.0946 7.81314 20.4689 7.13134 17.7818C6.56314 15.5424 7.59684 13.2044 9.63544 12.1175L8.72544 9.8726C5.03464 11.6806 3.50814 16.1383 5.31614 19.8293L5.31664 19.8303C7.12464 23.5212 11.5823 25.0476 15.2733 23.2396L15.2743 23.2391C18.9656 21.432 20.493 16.9746 18.6859 13.2833C18.0734 12.0321 17.122 10.978 15.9399 10.2408C14.7578 9.50371 13.3925 9.11318 11.9994 9.1137H11.9914L11.9904 9.1147Z" fill="white"/>
</g>
<defs>
<clipPath id="clip0_142_64">
<rect width="24" height="24" fill="white"/>
</clipPath>
</defs>
</svg>

<svg role="img" viewBox="0 0 24 24" xmlns="http://www.w3.org/2000/svg"><title>Looker</title><path d="M11.9475 0c-1.1598.0021-2.0982.944-2.096 2.1038a2.1 2.1 0 00.356 1.166l.895-.8959a.884.884 0 11.565.564l-.895.895c.9593.6478 2.2621.3953 2.91-.564.6478-.9593.3953-2.262-.564-2.91A2.096 2.096 0 0011.9475 0zm-.835 6.1128a3.2629 3.2629 0 00-.653-1.965l-1.164 1.162a1.667 1.667 0 01-.318 2.012l.632 1.5449a3.2819 3.2819 0 001.503-2.754zm-3.2499 1.666h-.03c-.9217.0009-1.6697-.7455-1.6707-1.6673-.001-.9217.7454-1.6697 1.6672-1.6707a1.669 1.669 0 01.9195.275l1.152-1.152c-1.4069-1.141-3.4724-.9257-4.6135.4811s-.9257 3.4723.481 4.6135a3.2799 3.2799 0 002.7275.6652l-.633-1.5439v-.001zm4.1279 1.3359c-.728 0-1.452.106-2.15.315l.922 2.2519c2.6872-.6819 5.4184.9438 6.1002 3.631.6818 2.6873-.9439 5.4184-3.6311 6.1002s-5.4184-.9439-6.1002-3.631c-.5682-2.2394.4655-4.5774 2.5041-5.6643l-.91-2.2449c-3.6908 1.808-5.2173 6.2657-3.4093 9.9567l.0005.001c1.808 3.6909 6.2657 5.2173 9.9567 3.4093l.001-.0005c3.6913-1.8071 5.2187-6.2645 3.4116-9.9558a7.4417 7.4417 0 00-6.6865-4.1696h-.008l-.001.001z"/></svg>
